X:563
T:Reel 563
M:4/4
K:Cmaj
L:1/8
E2DC ECDC| (3EDC DC A,CDF|ECDC A,CG,E|| (3EGc GE EDDE:||2 (3EFG AB c2GE|CccB cGEG|c2ec AcGE|C2cA GcAG| (3EFG cE EDD2| (3edc  (3dcB cBAG|EGAG EDDE|FEFG ABcd| (3efg df ecc2|
